icons/solid/save-as.svg

<svg width="24" height="24" viewBox="0 0 24 24" fill="none" xmlns="http://www.w3.org/2000/svg">
<path fill-rule="evenodd" clip-rule="evenodd" d="M6 8C6 6.34315 7.34315 5 9 5H19C20.6569 5 22 6.34315 22 8V14C22 15.6569 20.6569 17 19 17H18.5H18H9C7.34315 17 6 15.6569 6 14V8ZM4 8.17071C2.83481 8.58254 2 9.69378 2 11V18C2 19.6569 3.34315 21 5 21H15C16.3062 21 17.4175 20.1652 17.8293 19H9C6.23858 19 4 16.7614 4 14V8.17071ZM14 3C14.5523 3 15 3.44772 15 4V9.58579L16.2929 8.29289C16.6834 7.90237 17.3166 7.90237 17.7071 8.29289C18.0976 8.68342 18.0976 9.31658 17.7071 9.70711L14.7071 12.7071C14.3166 13.0976 13.6834 13.0976 13.2929 12.7071L10.2929 9.70711C9.90237 9.31658 9.90237 8.68342 10.2929 8.29289C10.6834 7.90237 11.3166 7.90237 11.7071 8.29289L13 9.58579V4C13 3.44772 13.4477 3 14 3Z" fill="currentColor"/>
</svg>

<svg width="24" height="24" fill="none" xmlns="http://www.w3.org/2000/svg"><path fill-rule="evenodd" clip-rule="evenodd" d="M6 8a3 3 0 013-3h10a3 3 0 013 3v6a3 3 0 01-3 3H9a3 3 0 01-3-3V8zm-2 .17A3.001 3.001 0 002 11v7a3 3 0 003 3h10a3.001 3.001 0 002.83-2H9a5 5 0 01-5-5V8.17zM14 3a1 1 0 011 1v5.586l1.293-1.293a1 1 0 111.414 1.414l-3 3a1 1 0 01-1.414 0l-3-3a1 1 0 111.414-1.414L13 9.586V4a1 1 0 011-1z" fill="currentColor"/></svg>
